assets/svg/ficon/cloud-download.svg

<?xml version="1.0" encoding="utf-8"?>
<svg width="2048" height="1792" viewBox="0 0 2048 1792" xmlns="http://www.w3.org/2000/svg"><path d="M1344 928q0-14-9-23t-23-9h-224v-352q0-13-9.5-22.5t-22.5-9.5h-192q-13 0-22.5 9.5t-9.5 22.5v352h-224q-13 0-22.5 9.5t-9.5 22.5q0 14 9 23l352 352q9 9 23 9t23-9l351-351q10-12 10-24zm640 224q0 159-112.5 271.5t-271.5 112.5h-1088q-185 0-316.5-131.5t-131.5-316.5q0-130 70-240t188-165q-2-30-2-43 0-212 150-362t362-150q156 0 285.5 87t188.5 231q71-62 166-62 106 0 181 75t75 181q0 76-41 138 130 31 213.5 135.5t83.5 238.5z" fill="#60be86"/></svg>

<svg width="2048" height="1792" xmlns="http://www.w3.org/2000/svg"><path d="M1344 928q0-14-9-23t-23-9h-224V544q0-13-9.5-22.5T1056 512H864q-13 0-22.5 9.5T832 544v352H608q-13 0-22.5 9.5T576 928q0 14 9 23l352 352q9 9 23 9t23-9l351-351q10-12 10-24zm640 224q0 159-112.5 271.5T1600 1536H512q-185 0-316.5-131.5T64 1088q0-130 70-240t188-165q-2-30-2-43 0-212 150-362t362-150q156 0 285.5 87T1306 446q71-62 166-62 106 0 181 75t75 181q0 76-41 138 130 31 213.5 135.5T1984 1152z" fill="#60be86"/></svg>
